svgs/solid/square-x.svg

<svg xmlns="http://www.w3.org/2000/svg" viewBox="0 0 448 512"><!-- Font Awesome Pro 6.0.0-alpha2 by @fontawesome - https://fontawesome.com License - https://fontawesome.com/license (Commercial License) --><path d="M384 32H64C28.654 32 0 60.654 0 96V416C0 451.346 28.654 480 64 480H384C419.348 480 448 451.346 448 416V96C448 60.654 419.348 32 384 32ZM330.328 344.5C338.891 354.609 337.625 369.766 327.5 378.328C323 382.141 317.484 384 312.016 384C305.203 384 298.422 381.109 293.672 375.5L224 293.16L154.328 375.5C149.578 381.109 142.797 384 135.984 384C130.516 384 125 382.141 120.5 378.328C110.375 369.766 109.109 354.609 117.672 344.5L192.557 256L117.672 167.5C109.109 157.391 110.375 142.234 120.5 133.672C130.609 125.141 145.781 126.406 154.328 136.5L224 218.84L293.672 136.5C302.219 126.375 317.391 125.094 327.5 133.672C337.625 142.234 338.891 157.391 330.328 167.5L255.443 256L330.328 344.5Z"/></svg>

<svg xmlns="http://www.w3.org/2000/svg" viewBox="0 0 448 512"><!--! Font Awesome Pro 6.3.0 by @fontawesome - https://fontawesome.com License - https://fontawesome.com/license (Commercial License) Copyright 2023 Fonticons, Inc. --><path d="M64 32C28.7 32 0 60.7 0 96V416c0 35.3 28.7 64 64 64H384c35.3 0 64-28.7 64-64V96c0-35.3-28.7-64-64-64H64zm90.3 104.5L224 218.8l69.7-82.3c8.6-10.1 23.7-11.4 33.8-2.8s11.4 23.7 2.8 33.8L255.4 256l74.9 88.5c8.6 10.1 7.3 25.3-2.8 33.8s-25.3 7.3-33.8-2.8L224 293.2l-69.7 82.3c-8.6 10.1-23.7 11.4-33.8 2.8s-11.4-23.7-2.8-33.8L192.6 256l-74.9-88.5c-8.6-10.1-7.3-25.3 2.8-33.8s25.3-7.3 33.8 2.8z"/></svg>
